X:990
T:Green Hills of Tyrol
A:Wyresdale, Lancashire
B:E and J Winder, 1835-41
L:1/8
N:There are what appear to be song-words to this. Hard to read and not transcribed
O:England
Z:Richard Robinson 
%%TUNEURL: http://www.leeds.ac.uk/music/Info/RRTuneBk/gettune/00001107.html
%%ID:00001107
K:F
CFG | \
A2A FAB | c2c   dAd | (cB)G EGd | cAF CFG | \
A2A FAB | (c2c) dAd | (cB)G CEG | F3-FzF2 |
f4   ed | (dc)c zd2 | (cB)B zc2 | BAA zF2 | \
f4   ed | dcc   zd2 | c^BB zAG | c2z GeG |
d2-d G=BG | c2-c GeG | d2-d G=BG | Hc2z zFG | \
A2A F2A | Bcd dAd | (cB)G EGd | (cAF) CFG |
A2-A FAB | c2-c dAd | (cB)G CEG | HF2z EFG | \
A2-A E^cE | A2-A BAG | F2-F CAC | F2z EFG | \
A2-A E^cE | A2z BAG | ! F2-F CAC | F2-F z2 (F | \
f4) ed | dcc z2d | (cB)B z2c | (BA)A zFF | \
f2e2d2 | (dc)c z2d2 | (cB) HB2 c2 | f2 z2 |]
%%newpage
%page 80 (green hills of tyrol, cont)
